X:1
T:O Holy Nigh
T:O Holy Night
T:Arr, Austin Volkmer
T:Isabelle Posey
C:Isabelle Posey
%%score 1 { ( 2 4 ) | 3 }
L:1/8
Q:3/8=53
M:6/8
K:C
V:1 treble transpose=-2 nm="B♭ Clarinet" snm="B♭ Cl."
V:2 treble nm="Piano" snm="Pno."
V:4 treble 
V:3 bass 
V:1
[K:D] z6 | z6 | F3 F2 F | A3- A2 A | B2 B G2 B | d6 | A2 A F2 E | D3 F2 G | A3 G2 E | D6- | %10
 D3 z z2 | F3 F2 F | A3- A2 A | B2 B G2 B | d6 | A2 A ^G2 F | c3 A2 B | c3 d2 c | F6- | F3 z2 A | %20
 A3 B3 | E3 A3 | B2 A d2 F | B3 A2 A | A3 B3 | E3 A3 | B2 A d2 F | A6 | d6- | d3 c2 B | c6- | %31
 c3 c3 | e6- | e2 B B2 B | d6 | d3- d2 d | f6 | e3- e2 A | d6- | d3 c2 B | A6- | A2 A B2 A | A6- | %43
 A3 d3 | e6- | e3 A3 | f6- | f3 e3 | d6 | c3 d2 e | d6- | d3 d3 | e6- | e3 A3 | a6 | g3 f3 | d6 | %57
 c3 d2 e | d6- | d6 |] %60
V:2
 z CE GEC | z CE GEC | CEG CEG | CEG CEG | CFA CFA | CEG CEG | CEG CEG | CEG CEG | B,FG B,FG | %9
 CEG CEG | CEF GFD | CEG CEG | CEG CEG | CFA CFA | CEG CEG | CEG CEG | B,EG B,EG | B,^D^F B,DF | %18
 EGB EGB | EGB !arpeggio![Beg]3 | B,FG B,FG | B,FG B,FG | CEG CEG | CEG CEG | B,FG B,FG | %25
 B,FG B,FG | CEG CEG | CEG CEG | [Ac]3 z AB | [Ac]3 BAF | [EG]3 z E^F | G^FE B,A,G, | DFA dFD | %33
 [DEA]3 [CEA]3 | A,E,C, E3 | C3 A,3 | Gce Gce | FBd FBd | EGc EGc | D3 C3 | Gce Gce | [GB]6 | %42
 CEG CEG | CEG EGc | GBd GBd | FBd FBd | EGc EGc | [Fc]6 | Gce Gce | [Gf]3- [Gf]2 z | CEG cGE | %51
 C3 EGc | GBd GBd | FBd FBd | EGc EGc | [Fc]6 | Gce Gce | [Gf]3- [Gf]2 z | CEG ceg | %59
 !arpeggio![cegc']6 |] %60
V:3
 C,6 | C,6 | [C,E,G,]6 | [E,G,C]6 | [F,A,C]2 C F,2 A, | [C,E,G,]6 | E,2 E, C,2 B,, | A,,3 C,2 D, | %8
 E,3 D,2 B,, | C,6- | C,3 z z2 | z6 | z3 z B,[C,E,G,] | F,2 F, D,2 F, | [E,G,C]3 CE,G, | %15
 [C,E,G,]6 | [B,,E,G,]6 | [B,,^D,^F,]6 | [E,G,B,]6- | [E,G,B,]3 z z2 | [B,,D,G,]3 F,3 | B,,3 D,3 | %22
 [C,E,G,]6 | [C,E,G,]6 | [B,,D,F,]3 G,3 | B,,3 D,3 | [C,E,G,]3 [E,G,C]3 | [C,E,G,]6 | %28
 E,3 [A,,-E,]3 | [A,,CE]3 z z2 | E,3 [E,,-E,]3 | [E,,G,]3 z z2 | F,3 [D,,D,]3- | [D,,D,]6 | %34
 z3 A,,3 | [A,,E,A,]3 [A,,C,E,]3 | [E,G,C]6 | [F,G,B,]6 | [C,E,G,]6 | [A,,A,]3 [G,,G,]3 | [G,C]6 | %41
 [D,F,]6 | [C,E,G,]6- | [C,E,G,]6 | [D,G,B,]6- | [D,G,B,]3 F,3 | [C,E,G,]6 | [F,A,C]6 | [E,G,C]6 | %49
 z6 | E,6- | E,6 | [D,G,B,]6- | [D,G,B,]3 F,3 | [C,E,G,]6 | [F,A,C]6 | [E,G,C]6 | z6 | E,6- | %59
 E,6 |] %60
V:4
 x6 | x6 | x6 | x6 | x6 | x6 | x6 | x6 | x6 | x6 | x6 | x6 | x6 | x6 | x6 | x6 | x6 | x6 | x6 | %19
 x6 | x6 | x6 | x6 | x6 | x6 | x6 | x6 | x6 | x6 | x6 | x6 | E3 x3 | x6 | x6 | C3 x3 | x6 | x6 | %37
 x6 | x6 | x6 | x6 | x6 | x6 | x6 | x6 | x6 | x6 | x6 | x6 | x6 | x6 | x6 | x6 | x6 | x6 | x6 | %56
 x6 | x6 | x6 | x6 |] %60

